packages/calcite-ui-icons/icons/transcript-32-f.svg

<?xml version="1.0" encoding="UTF-8"?><svg id="icons" xmlns="http://www.w3.org/2000/svg" viewBox="0 0 32 32"><defs><style>.cls-1{fill:none;}.cls-1,.cls-2{stroke-width:0px;}.cls-2{fill:#000;}</style></defs><rect class="cls-1" width="32" height="32"/><path class="cls-2" d="M5,2v28h22V2H5ZM9,9h3v1h-3v-1ZM9,19h9v1h-9v-1ZM20,25h-11v-1h11v1ZM23,20h-4v-1h4v1ZM23,15h-14v-1h14v1ZM23,10h-10v-1h10v1Z"/></svg>

<svg xmlns="http://www.w3.org/2000/svg" viewBox="0 0 32 32"><path stroke-width="0" fill="none" d="M0 0h32v32H0z"/><path d="M5 2v28h22V2H5zm4 7h3v1H9V9zm0 10h9v1H9v-1zm11 6H9v-1h11v1zm3-5h-4v-1h4v1zm0-5H9v-1h14v1zm0-5H13V9h10v1z" stroke-width="0"/></svg>
